assets/icons/move.svg

<svg width="20" height="20" viewBox="0 0 20 20" fill="none" xmlns="http://www.w3.org/2000/svg">
<path d="M15.6 12.4L18 10M18 10L15.6 7.60002M18 10H2M2 10L4.4 12.4M2 10L4.4 7.60002M12.4 4.40002L10 2.00002M10 2.00002L7.6 4.40002M10 2.00002V18M10 18L12.4 15.6M10 18L7.6 15.6" stroke="currentColor" stroke-width="1.3" stroke-miterlimit="10" stroke-linecap="round" stroke-linejoin="round"/>
</svg>

<svg xmlns="http://www.w3.org/2000/svg" width="20" height="20" fill="none" viewBox="0 0 20 20"><path stroke="currentColor" stroke-linecap="round" stroke-linejoin="round" stroke-miterlimit="10" stroke-width="1.3" d="M15.6 12.4 18 10m0 0-2.4-2.4M18 10H2m0 0 2.4 2.4M2 10l2.4-2.4m8-3.2L10 2m0 0L7.6 4.4M10 2v16m0 0 2.4-2.4M10 18l-2.4-2.4"/></svg>
